img/svg/contacts/file-text.svg

<svg width="28" height="28" viewBox="0 0 28 28" fill="none" xmlns="http://www.w3.org/2000/svg">
<path d="M16.3346 2.33594V7.0026C16.3346 7.62144 16.5805 8.21494 17.0181 8.65252C17.4556 9.09011 18.0491 9.33594 18.668 9.33594H23.3346M11.668 10.5026H9.33464M18.668 15.1693H9.33464M18.668 19.8359H9.33464M17.5013 2.33594H7.0013C6.38246 2.33594 5.78897 2.58177 5.35139 3.01935C4.9138 3.45694 4.66797 4.05043 4.66797 4.66927V23.3359C4.66797 23.9548 4.9138 24.5483 5.35139 24.9859C5.78897 25.4234 6.38246 25.6693 7.0013 25.6693H21.0013C21.6201 25.6693 22.2136 25.4234 22.6512 24.9859C23.0888 24.5483 23.3346 23.9548 23.3346 23.3359V8.16927L17.5013 2.33594Z" stroke="#030303" stroke-width="1.5" stroke-linecap="round" stroke-linejoin="round"/>
</svg>

<svg width="28" height="28" fill="none" xmlns="http://www.w3.org/2000/svg"><path d="M16.335 2.336v4.667a2.333 2.333 0 002.333 2.333h4.667m-11.667 1.167H9.335m9.333 4.666H9.335m9.333 4.667H9.335m8.166-17.5h-10.5a2.333 2.333 0 00-2.333 2.333v18.667a2.333 2.333 0 002.333 2.333h14a2.334 2.334 0 002.334-2.333V8.169L17.5 2.336z" stroke="#030303" stroke-width="1.5" stroke-linecap="round" stroke-linejoin="round"/></svg>
